public/images/partners/Panasonic.svg

<svg width="252" height="40" viewBox="0 0 252 40" fill="none" xmlns="http://www.w3.org/2000/svg">
<g id="Panasonic_logo 1" clip-path="url(#clip0_20314_1655)">
<g id="g3344">
<g id="g3532">
<g id="Clip path group">
<mask id="mask0_20314_1655" style="mask-type:luminance" maskUnits="userSpaceOnUse" x="1" y="0" width="253" height="40">
<g id="clipPath3536">
<path id="path3538" d="M1.61975 0.821442H253.012V39.0112H1.61975V0.821442Z" fill="white"/>
</g>
</mask>
<g mask="url(#mask0_20314_1655)">
<g id="g3534">
<g id="g3540">
<path id="path3542" d="M247.641 34.6809C245.637 36.7869 243.366 38.0426 240.518 38.616C238.595 39.0049 236.911 39.0866 234.956 38.8838C232.366 38.6176 230.228 37.7854 228.143 36.2256C226.438 34.9547 225.217 33.5794 224.15 31.7366C223.327 30.3099 222.848 28.9755 222.581 27.3506C222.208 25.0963 222.306 23.1128 222.899 20.9084C224.255 15.8945 228.027 12.3406 233.11 11.283C236.013 10.6793 238.595 10.7414 241.465 11.4827C243.509 12.0107 245.132 12.9004 246.678 14.3392C247.654 15.2439 248.347 16.1532 248.961 17.3303C249.689 18.7222 249.983 20.0748 249.899 21.6422H240.832C240.636 20.4273 240.053 19.459 239.074 18.7146C237.806 17.7479 236.171 17.6707 234.815 18.5089C233.889 19.0853 233.281 19.869 232.953 20.9084C232.172 23.3851 232.137 25.6894 232.833 28.1903C233.13 29.2418 233.628 30.0663 234.423 30.8168C235.33 31.6822 236.46 32.0377 237.7 31.8547C238.469 31.7427 239.094 31.4068 239.611 30.8243C240.154 30.2237 240.465 29.5792 240.607 28.7818C240.707 28.2205 240.763 27.7455 240.793 27.1766H250.352C250.542 30.0588 249.629 32.59 247.641 34.6809Z" fill="#0056A8"/>
</g>
</g>
</g>
</g>
</g>
<path id="path3544" d="M211.095 8.00391H221.012V0.998859H211.095V8.00391Z" fill="#0056A8"/>
<path id="path3546" d="M211.095 38.1221H221.012V11.6043H211.095V38.1221Z" fill="#0056A8"/>
<g id="g3548">
<path id="path3550" d="M190.554 14.4031C191.858 13.2623 193.102 12.4574 194.675 11.7297C197.237 10.5466 199.798 10.3544 202.508 11.1457C205.414 11.9975 207.508 14.0415 208.425 16.9297C208.865 18.3171 209.056 19.5487 209.056 21.0041V38.1187H198.524V22.7274C198.524 22.213 198.462 21.7772 198.308 21.284C198.039 20.4004 197.455 19.7499 196.601 19.3898C194.734 18.597 192.612 19.299 191.587 21.048C191.159 21.7772 190.964 22.4959 190.964 23.3431V38.1187H180.764V11.5996H190.333L190.554 14.4031Z" fill="#0056A8"/>
</g>
<g id="g3552">
<path id="path3554" d="M73.2707 14.4031C74.5748 13.2623 75.8185 12.4574 77.3889 11.7297C79.9519 10.5466 82.5148 10.3544 85.223 11.1457C88.1309 11.9975 90.2248 14.0415 91.1417 16.9297C91.582 18.3171 91.7726 19.5487 91.7726 21.0041V38.1187H81.2409V22.7274C81.2409 22.213 81.1759 21.7772 81.0261 21.284C80.7537 20.4004 80.1697 19.7499 79.3149 19.3898C77.4495 18.597 75.3268 19.299 74.304 21.048C73.8743 21.7772 73.6792 22.4959 73.6792 23.3431V38.1187H63.4803V11.5996H73.0483L73.2707 14.4031Z" fill="#0056A8"/>
</g>
<g id="g3556">
<g id="Clip path group_2">
<mask id="mask1_20314_1655" style="mask-type:luminance" maskUnits="userSpaceOnUse" x="1" y="0" width="253" height="40">
<g id="clipPath3560">
<path id="path3562" d="M1.61975 0.821442H253.012V39.0112H1.61975V0.821442Z" fill="white"/>
</g>
</mask>
<g mask="url(#mask1_20314_1655)">
<g id="g3558">
<g id="g3564">
<path id="path3566" d="M135.773 28.3718C136.533 28.5004 137.168 28.6593 137.897 28.9029C138.507 29.1026 138.926 29.5746 139.059 30.1995C139.205 30.8818 139.012 31.5294 138.522 32.0211C138.024 32.5249 137.457 32.8154 136.758 32.9243C135.823 33.0741 134.994 32.9969 134.103 32.6732C133.672 32.5188 133.33 32.3237 132.976 32.0317C132.52 31.6474 132.227 31.2071 132.05 30.6382C131.901 30.1556 131.842 29.729 131.852 29.2236H122.14V29.7895C122.14 30.7033 122.282 31.4779 122.603 32.3327C123.09 33.6188 123.757 34.6128 124.765 35.5508C126.08 36.7808 127.452 37.5479 129.181 38.0426C132.771 39.0654 136.005 39.2681 139.695 38.7023C141.426 38.4375 142.854 37.9715 144.411 37.1651C145.096 36.8096 145.645 36.4419 146.237 35.9457C148.86 33.7428 149.833 30.381 148.785 27.1206C148.388 25.8921 147.762 24.945 146.786 24.0977C145.448 22.9388 144.094 22.2005 142.394 21.7042C142.022 21.5968 141.704 21.5061 141.329 21.4032C139.248 20.8252 137.462 20.444 135.325 20.1262C134.753 20.0415 134.272 19.9492 133.708 19.8176C133.448 19.7556 133.231 19.6829 132.989 19.5725C132.392 19.3032 132.127 18.5997 132.396 18.0036C132.411 17.9718 132.425 17.943 132.442 17.9128C132.762 17.3394 133.237 16.9657 133.864 16.7826C134.973 16.4619 135.994 16.4891 137.082 16.8598C138.126 17.2153 138.781 18.173 138.735 19.276H148.093C148.084 18.1261 147.909 17.1548 147.521 16.0745C147.125 14.9792 146.523 14.1455 145.607 13.4238C144.812 12.7914 144.057 12.3618 143.108 11.9941C142.185 11.6355 141.371 11.4116 140.395 11.2407C138.076 10.8412 136.08 10.7247 133.732 10.8639C132.39 10.9411 131.258 11.1075 129.945 11.4146C128.178 11.8307 126.754 12.5131 125.326 13.6326C124.113 14.5843 123.318 15.6963 122.81 17.1518C122.579 17.8114 122.468 18.3969 122.438 19.0914C122.385 20.2548 122.553 21.2458 122.984 22.3276C123.756 24.2642 125.126 25.6364 127.066 26.4095C128.048 26.8014 128.909 27.0586 129.945 27.2704C131.988 27.6925 133.717 28.0208 135.773 28.3718Z" fill="#0056A8"/>
</g>
</g>
</g>
</g>
</g>
<g id="g3568">
<path id="path3570" d="M19.688 26.6857H12.8828V17.9847H17.3051C18.1448 17.9847 18.8559 17.965 19.6956 17.9181C20.8591 17.8546 21.8258 17.3341 22.5188 16.3976C22.8864 15.8999 23.0937 15.3975 23.1814 14.7833C23.2541 14.2659 23.2647 13.8241 23.2132 13.3066C23.0241 11.3701 21.4204 9.91763 19.4762 9.91763H12.8828V38.1206H1.61731V0.995739H20.0315C20.7637 0.995739 21.3825 1.00936 22.1133 1.05021C26.9986 1.31195 31.0231 4.02467 33.0928 8.45763C34.17 10.7649 34.5362 12.9829 34.2593 15.5156C33.6753 20.8472 29.9459 24.9942 24.7065 26.1425C22.9696 26.5238 21.4658 26.6857 19.688 26.6857Z" fill="#0056A8"/>
</g>
<g id="g3572">
<path id="path3574" d="M167.581 11.0944C166.533 10.928 165.637 10.8599 164.576 10.8599C163.514 10.8599 162.62 10.928 161.57 11.0944C158.526 11.571 156.06 12.795 153.838 14.9283C151.459 17.2143 150.157 19.9195 149.858 23.2041C149.677 25.2209 149.833 26.9593 150.376 28.9095C151.208 31.9021 152.771 34.2139 155.237 36.102C156.86 37.3502 158.475 38.0976 160.475 38.5334C161.896 38.845 163.123 38.9736 164.576 38.9736C166.029 38.9736 167.257 38.845 168.68 38.5334C170.678 38.0976 172.293 37.3502 173.916 36.102L168.218 29.8929C167.312 31.9051 164.952 32.8023 162.938 31.896C162.011 31.4785 161.352 30.8218 160.933 29.8929C160.547 29.035 160.322 28.2665 160.183 27.3345C159.901 25.472 159.933 23.8547 160.298 22.0043C160.484 21.0436 160.805 20.2599 161.34 19.4414C162.511 17.6546 164.908 17.1553 166.698 18.3248C167.165 18.632 167.507 18.9739 167.811 19.4414C168.348 20.2599 168.669 21.0436 168.855 22.0043C169.215 23.8547 169.252 25.472 168.97 27.3345C168.829 28.2665 168.604 29.035 168.218 29.8929L173.916 36.102C176.384 34.2139 177.946 31.9021 178.777 28.9095C179.32 26.9593 179.475 25.2209 179.294 23.2041C178.996 19.9195 177.697 17.2143 175.317 14.9283C173.093 12.792 170.628 11.571 167.581 11.0944Z" fill="#0056A8"/>
</g>
<g id="g3576">
<g id="Clip path group_3">
<mask id="mask2_20314_1655" style="mask-type:luminance" maskUnits="userSpaceOnUse" x="1" y="0" width="253" height="40">
<g id="clipPath3580">
<path id="path3582" d="M1.61975 0.821442H253.012V39.0112H1.61975V0.821442Z" fill="white"/>
</g>
</mask>
<g mask="url(#mask2_20314_1655)">
<g id="g3578">
<g id="g3584">
<path id="path3586" d="M121.052 36.0429C120.904 33.8582 120.821 32.0078 120.777 29.8155C120.719 26.9349 120.684 24.5051 120.665 21.6259C120.653 20.0721 120.482 18.7604 120.093 17.2565C119.583 15.2851 118.429 13.7873 116.651 12.7918C115.577 12.1911 114.592 11.822 113.39 11.5618C109.566 10.7432 106.19 10.6752 102.337 11.3439C101.254 11.5315 100.358 11.7917 99.3412 12.2123C96.9931 13.1836 95.3757 14.9538 94.6223 17.3791C94.3333 18.3065 94.2561 19.1477 94.3666 20.1145C94.3878 20.2915 94.4316 20.4413 94.5118 20.6032L103.435 20.821C103.413 20.2522 103.487 19.771 103.679 19.237C103.971 18.423 104.546 17.8451 105.36 17.5485C106.556 17.1082 107.709 17.0916 108.923 17.488C109.72 17.7497 110.286 18.3247 110.534 19.125C110.69 19.6258 110.613 20.119 110.31 20.5472C110.047 20.9254 109.722 21.1796 109.29 21.3445C109.024 21.4459 108.797 21.52 108.525 21.5926C107.284 21.927 106.225 22.157 104.959 22.3673C103.956 22.5322 103.111 22.688 102.117 22.8908C100.766 23.1585 99.6377 23.4551 98.329 23.8787C97.1308 24.266 96.1867 24.8167 95.2607 25.6685C94.0564 26.77 93.368 28.0757 93.1381 29.696C92.9868 30.7763 93.0216 31.7173 93.2606 32.7809C93.8855 35.5466 95.8054 37.5921 98.5302 38.3849C101.55 39.2609 104.384 39.1172 107.299 37.9401C108.718 37.3697 109.799 36.5785 110.775 35.4014L110.145 30.8428C109.696 31.5388 109.138 32.0139 108.383 32.3467C107.675 32.6599 107.035 32.8248 106.264 32.9035C105.623 32.967 105.066 32.9201 104.444 32.7461C103.939 32.6069 103.544 32.3709 103.186 31.9897C102.883 31.6629 102.703 31.3119 102.611 30.8761C102.47 30.2074 102.689 29.5644 103.211 29.1211C103.561 28.8231 103.903 28.6233 104.331 28.466C105.367 28.0847 106.252 27.7988 107.313 27.4977C108.596 27.1361 109.658 26.7443 110.868 26.1875C110.988 27.1573 110.982 27.9879 110.847 28.9532C110.749 29.6612 110.534 30.2437 110.145 30.8428L110.775 35.4014C110.97 36.0489 111.15 36.5906 111.371 37.2245C111.496 37.58 111.66 37.8554 111.908 38.1323H121.737C121.318 37.4741 121.105 36.8236 121.052 36.0429Z" fill="#0056A8"/>
</g>
<g id="g3588">
<path id="path3590" d="M61.5175 36.0429C61.3692 33.8582 61.286 32.0078 61.2421 29.8155C61.1831 26.9349 61.1498 24.5051 61.1302 21.6259C61.1196 20.0721 60.9486 18.7604 60.5583 17.2565C60.0484 15.2851 58.8955 13.7873 57.1163 12.7918C56.0421 12.1911 55.0572 11.822 53.8559 11.5618C50.0311 10.7432 46.6557 10.6752 42.8007 11.3439C41.7205 11.5315 40.8218 11.7917 39.8066 12.2123C37.4585 13.1836 35.8411 14.9538 35.0877 17.3791C34.8002 18.3065 34.7215 19.1477 34.8335 20.1145C34.8532 20.2915 34.897 20.4413 34.9772 20.6032L43.9006 20.821C43.8795 20.2522 43.9521 19.771 44.1442 19.237C44.4362 18.423 45.0111 17.8451 45.8251 17.5485C47.0234 17.1082 48.1747 17.0916 49.3866 17.488C50.1854 17.7497 50.7528 18.3247 51.0024 19.125C51.1553 19.6258 51.0781 20.119 50.7755 20.5472C50.5107 20.9254 50.1854 21.1796 49.7558 21.3445C49.4895 21.4459 49.2625 21.52 48.9887 21.5926C47.7496 21.927 46.689 22.157 45.4242 22.3673C44.4226 22.5322 43.5769 22.688 42.5813 22.8908C41.2318 23.1585 40.1046 23.4551 38.7929 23.8787C37.5977 24.266 36.6536 24.8167 35.7261 25.6685C34.5218 26.77 33.835 28.0757 33.6035 29.696C33.4507 30.7763 33.487 31.7173 33.7275 32.7809C34.3494 35.5466 36.2723 37.5921 38.9941 38.3849C42.017 39.2609 44.8477 39.1172 47.7647 37.9401C49.1824 37.3697 50.2656 36.5785 51.2415 35.4014L50.6121 30.8428C50.1628 31.5388 49.603 32.0139 48.8465 32.3467C48.1399 32.6599 47.4984 32.8248 46.7314 32.9035C46.0869 32.967 45.5331 32.9201 44.9098 32.7461C44.4044 32.6069 44.0096 32.3709 43.6525 31.9897C43.3484 31.6629 43.1684 31.3119 43.0761 30.8761C42.9369 30.2074 43.1547 29.5644 43.6767 29.1211C44.0247 28.8231 44.3666 28.6233 44.7963 28.466C45.8327 28.0847 46.7193 27.7988 47.7799 27.4977C49.0628 27.1361 50.1234 26.7443 51.3353 26.1875C51.4533 27.1573 51.4473 27.9879 51.3126 28.9532C51.2143 29.6612 50.9979 30.2437 50.6121 30.8428L51.2415 35.4014C51.4351 36.0489 51.6152 36.5906 51.8376 37.2245C51.9617 37.58 52.1251 37.8554 52.3732 38.1323H62.2028C61.7838 37.4741 61.5719 36.8236 61.5175 36.0429Z" fill="#0056A8"/>
</g>
</g>
</g>
</g>
</g>
</g>
</g>
<defs>
<clipPath id="clip0_20314_1655">
<rect width="250.749" height="40" fill="white" transform="translate(0.625244)"/>
</clipPath>
</defs>
</svg>

<svg xmlns="http://www.w3.org/2000/svg" width="252" height="40" fill="none"><g clip-path="url(#a)"><mask id="b" width="253" height="40" x="1" y="0" maskUnits="userSpaceOnUse" style="mask-type:luminance"><path fill="#fff" d="M1.62.821h251.392v38.19H1.62z"/></mask><g mask="url(#b)"><path fill="#0056A8" d="M247.641 34.68c-2.004 2.107-4.275 3.363-7.123 3.936-1.923.389-3.607.47-5.562.268-2.59-.266-4.728-1.099-6.813-2.658-1.705-1.271-2.926-2.647-3.993-4.49a12.4 12.4 0 0 1-1.569-4.385c-.373-2.255-.275-4.238.318-6.443 1.356-5.014 5.128-8.567 10.211-9.625 2.903-.604 5.485-.542 8.355.2 2.044.528 3.667 1.417 5.213 2.856a10.5 10.5 0 0 1 2.283 2.991c.728 1.392 1.022 2.745.938 4.312h-9.067c-.196-1.215-.779-2.183-1.758-2.927-1.268-.967-2.903-1.044-4.259-.206a4.2 4.2 0 0 0-1.862 2.4c-.781 2.476-.816 4.78-.12 7.281a5.5 5.5 0 0 0 1.59 2.627c.907.865 2.037 1.22 3.277 1.038a3.04 3.04 0 0 0 1.911-1.03 3.94 3.94 0 0 0 .996-2.043c.1-.561.156-1.037.186-1.605h9.559c.19 2.882-.723 5.413-2.711 7.504"/></g><path fill="#0056A8" d="M211.095 8.004h9.917V.999h-9.917zm0 30.118h9.917V11.604h-9.917zm-20.541-23.719a16.4 16.4 0 0 1 4.121-2.673c2.562-1.183 5.123-1.376 7.833-.584 2.906.851 5 2.895 5.917 5.784a12.8 12.8 0 0 1 .631 4.074V38.12h-10.532V22.727c0-.514-.062-.95-.216-1.443a2.9 2.9 0 0 0-1.707-1.894 3.974 3.974 0 0 0-5.014 1.658 4.33 4.33 0 0 0-.623 2.295V38.12h-10.2V11.6h9.569zm-117.284 0a16.4 16.4 0 0 1 4.119-2.673c2.563-1.183 5.126-1.376 7.834-.584 2.908.851 5.002 2.895 5.919 5.784.44 1.387.63 2.619.63 4.074V38.12h-10.53V22.727c0-.514-.065-.95-.215-1.443a2.92 2.92 0 0 0-1.711-1.894 3.97 3.97 0 0 0-5.011 1.658 4.3 4.3 0 0 0-.625 2.295V38.12h-10.2V11.6h9.568z"/><mask id="c" width="253" height="40" x="1" y="0" maskUnits="userSpaceOnUse" style="mask-type:luminance"><path fill="#fff" d="M1.62.821h251.392v38.19H1.62z"/></mask><g mask="url(#c)"><path fill="#0056A8" d="M135.773 28.372c.76.128 1.395.287 2.124.53.61.2 1.029.673 1.162 1.297a1.94 1.94 0 0 1-.537 1.822 3.04 3.04 0 0 1-1.764.903 5.1 5.1 0 0 1-2.655-.25 3.6 3.6 0 0 1-1.127-.642 2.85 2.85 0 0 1-.926-1.394 4.3 4.3 0 0 1-.198-1.414h-9.712v.566c0 .913.142 1.688.463 2.543a8.1 8.1 0 0 0 2.162 3.218c1.315 1.23 2.687 1.997 4.416 2.492 3.59 1.022 6.824 1.225 10.514.66a14.5 14.5 0 0 0 4.716-1.538 9.6 9.6 0 0 0 1.826-1.22c2.623-2.202 3.596-5.564 2.548-8.824a6.45 6.45 0 0 0-1.999-3.023c-1.338-1.16-2.692-1.897-4.392-2.394-.372-.107-.69-.198-1.065-.3a47 47 0 0 0-6.004-1.278 19 19 0 0 1-1.617-.308 3.7 3.7 0 0 1-.719-.245 1.187 1.187 0 0 1-.547-1.66c.32-.574.795-.947 1.422-1.13 1.109-.321 2.13-.294 3.218.077a2.41 2.41 0 0 1 1.653 2.416h9.358a9.2 9.2 0 0 0-.572-3.201 5.7 5.7 0 0 0-1.914-2.651 9.1 9.1 0 0 0-2.499-1.43 13.6 13.6 0 0 0-2.713-.753 27.6 27.6 0 0 0-6.663-.377 21 21 0 0 0-3.787.55c-1.767.417-3.191 1.1-4.619 2.219-1.213.951-2.008 2.063-2.516 3.519a6.4 6.4 0 0 0-.372 1.94 7.4 7.4 0 0 0 .546 3.236c.772 1.936 2.142 3.308 4.082 4.082a16 16 0 0 0 2.879.86c2.043.422 3.772.75 5.828 1.102"/></g><path fill="#0056A8" d="M19.688 26.686h-6.805v-8.701h4.422c.84 0 1.55-.02 2.39-.067 1.164-.063 2.13-.584 2.824-1.52.367-.498.575-1 .662-1.615a6 6 0 0 0 .032-1.476 3.736 3.736 0 0 0-3.737-3.39h-6.593v28.204H1.617V.996h18.415c.732 0 1.35.013 2.081.054 4.886.262 8.91 2.975 10.98 7.408 1.077 2.307 1.443 4.525 1.166 7.058-.584 5.331-4.313 9.478-9.553 10.626a22.2 22.2 0 0 1-5.018.544m147.893-15.592a18 18 0 0 0-3.005-.234c-1.062 0-1.956.068-3.006.234-3.044.477-5.51 1.701-7.732 3.834-2.379 2.286-3.681 4.991-3.98 8.276-.181 2.017-.025 3.755.518 5.706.832 2.992 2.395 5.304 4.861 7.192 1.623 1.248 3.238 1.996 5.238 2.431a18 18 0 0 0 4.101.44 18.2 18.2 0 0 0 4.104-.44c1.998-.435 3.613-1.183 5.236-2.431l-5.698-6.21a3.99 3.99 0 0 1-5.28 2.004 3.85 3.85 0 0 1-2.005-2.003 9.2 9.2 0 0 1-.75-2.559c-.282-1.862-.25-3.48.115-5.33a6.8 6.8 0 0 1 1.042-2.563 3.87 3.87 0 0 1 5.358-1.116c.467.307.809.649 1.113 1.116a6.8 6.8 0 0 1 1.044 2.563c.36 1.85.397 3.468.115 5.33a9.3 9.3 0 0 1-.752 2.559l5.698 6.209c2.468-1.888 4.03-4.2 4.861-7.192.543-1.95.698-3.69.517-5.706-.298-3.285-1.597-5.99-3.977-8.276-2.224-2.136-4.689-3.357-7.736-3.834"/><mask id="d" width="253" height="40" x="1" y="0" maskUnits="userSpaceOnUse" style="mask-type:luminance"><path fill="#fff" d="M1.62.821h251.392v38.19H1.62z"/></mask><g mask="url(#d)"><path fill="#0056A8" d="M121.052 36.043a124 124 0 0 1-.275-6.227 574 574 0 0 1-.112-8.19 17 17 0 0 0-.572-4.37c-.51-1.97-1.664-3.469-3.442-4.464a11.2 11.2 0 0 0-3.261-1.23c-3.824-.819-7.2-.887-11.053-.218a13.4 13.4 0 0 0-2.996.868c-2.348.972-3.965 2.742-4.719 5.167a6.3 6.3 0 0 0-.255 2.735c.02.177.065.327.145.49l8.923.217a4 4 0 0 1 .244-1.584 2.71 2.71 0 0 1 1.681-1.688c1.196-.44 2.349-.457 3.563-.061a2.43 2.43 0 0 1 1.611 1.637c.156.5.079.994-.224 1.422a2.1 2.1 0 0 1-1.02.797 7 7 0 0 1-.765.249c-1.241.334-2.3.564-3.566.774a72 72 0 0 0-2.842.524c-1.351.268-2.48.564-3.788.988a7.9 7.9 0 0 0-3.068 1.79c-1.205 1.101-1.893 2.407-2.123 4.027a8.2 8.2 0 0 0 .123 3.085c.624 2.766 2.544 4.811 5.27 5.604 3.019.876 5.853.732 8.768-.445 1.419-.57 2.5-1.361 3.476-2.539l-.63-4.558a3.86 3.86 0 0 1-1.762 1.504 6.6 6.6 0 0 1-2.119.556 4.7 4.7 0 0 1-1.82-.157 2.6 2.6 0 0 1-1.258-.756 2.25 2.25 0 0 1-.575-1.114 1.77 1.77 0 0 1 .6-1.755 3.5 3.5 0 0 1 1.12-.655 39 39 0 0 1 2.982-.968 23 23 0 0 0 3.555-1.31c.12.97.114 1.8-.021 2.765a4.4 4.4 0 0 1-.702 1.89l.63 4.558c.195.648.375 1.19.596 1.823.125.356.289.631.537.908h9.829a4.25 4.25 0 0 1-.685-2.09m-59.534.001a124 124 0 0 1-.276-6.227 574 574 0 0 1-.112-8.19 17 17 0 0 0-.572-4.37c-.51-1.97-1.663-3.469-3.442-4.464-1.074-.6-2.059-.97-3.26-1.23-3.825-.819-7.2-.887-11.055-.218-1.08.188-1.98.448-2.994.868-2.349.972-3.966 2.742-4.72 5.167a6.3 6.3 0 0 0-.254 2.735 1.4 1.4 0 0 0 .144.49l8.924.217a4 4 0 0 1 .243-1.584 2.71 2.71 0 0 1 1.681-1.688c1.198-.44 2.35-.457 3.562-.061a2.44 2.44 0 0 1 1.615 1.637c.153.5.076.994-.227 1.422-.264.378-.59.633-1.02.797a7 7 0 0 1-.766.249c-1.24.334-2.3.564-3.565.774a73 73 0 0 0-2.843.524 32 32 0 0 0-3.788.988 7.94 7.94 0 0 0-3.067 1.79c-1.204 1.101-1.891 2.407-2.123 4.027a8.2 8.2 0 0 0 .124 3.085c.622 2.766 2.545 4.811 5.267 5.604 3.023.876 5.854.732 8.77-.445 1.418-.57 2.502-1.361 3.477-2.539l-.629-4.558a3.86 3.86 0 0 1-1.766 1.504 6.6 6.6 0 0 1-2.115.556 4.7 4.7 0 0 1-1.821-.157c-.506-.14-.9-.375-1.257-.756a2.25 2.25 0 0 1-.577-1.114 1.77 1.77 0 0 1 .6-1.755c.349-.298.69-.498 1.12-.655a39 39 0 0 1 2.984-.968 23 23 0 0 0 3.555-1.31c.118.97.112 1.8-.022 2.765a4.46 4.46 0 0 1-.7 1.89l.629 4.558c.193.648.373 1.19.596 1.823.124.356.287.631.535.908h9.83a4.26 4.26 0 0 1-.686-2.09"/></g></g><defs><clipPath id="a"><path fill="#fff" d="M.625 0h250.75v40H.624z"/></clipPath></defs></svg>
